svgs/sharp-solid/arrow-down-right.svg

<svg xmlns="http://www.w3.org/2000/svg" viewBox="0 0 384 512"><!--! Font Awesome Pro 6.6.0 by @fontawesome - https://fontawesome.com License - https://fontawesome.com/license (Commercial License) Copyright 2024 Fonticons, Inc. --><path d="M320 416l32 0 0-32 0-224 0-32-64 0 0 32 0 146.7L86.6 105.4 64 82.7 18.7 128l22.6 22.6L242.7 352 96 352l-32 0 0 64 32 0 224 0z"/></svg>

<svg xmlns="http://www.w3.org/2000/svg" viewBox="0 0 384 512"><!--! Font Awesome Pro 6.5.2 by @fontawesome - https://fontawesome.com License - https://fontawesome.com/license (Commercial License) Copyright 2024 Fonticons, Inc. --><path d="M320 416h32V384 160 128H288v32V306.7L86.6 105.4 64 82.7 18.7 128l22.6 22.6L242.7 352H96 64v64H96 320z"/></svg>
